src/16/actions/labplot-xy-equation-curve.svg

<svg xmlns="http://www.w3.org/2000/svg" width="16" height="16" viewBox="0 0 16 16">
 <defs>
  <style id="current-color-scheme" type="text/css">
   .ColorScheme-Text { color:#5d656b; } .ColorScheme-Highlight { color:#5294e2; }
  </style>
 </defs>
 <path style="fill:currentColor" class="ColorScheme-Text" d="M 8 1.0039062 C 7.06944 1.0039062 6.2703875 1.4993475 5.5546875 2.1484375 C 4.8389975 2.7975375 4.1768406 3.6248406 3.4941406 4.4316406 C 2.6496006 5.5986406 0.4955 7.1690938 0 7.4335938 L 0 8.5039062 C 1.272 8.5039062 1.3661375 9.2957288 2.3984375 10.355469 C 2.4381375 10.472889 2.4747406 10.593626 2.5253906 10.697266 C 2.6006906 10.851306 2.6643388 11.028861 2.9492188 11.150391 L 3.0683594 11.201172 L 3.1484375 11.191406 C 3.2624175 11.322486 3.3788175 11.442202 3.4921875 11.576172 C 4.1748675 12.382952 4.8389875 13.210275 5.5546875 13.859375 C 6.2703775 14.508475 7.0695 15.003906 8 15.003906 C 8.93055 15.003906 9.7296125 14.508555 10.445312 13.859375 C 11.161002 13.210285 11.823159 12.382972 12.505859 11.576172 C 13.871259 9.9625719 14.2709 8.5039062 16 8.5039062 L 16 7.5039062 C 15.21584 7.5039062 15.502292 7.1932037 14.826172 6.7148438 C 14.727272 6.6273438 14.62573 6.5414487 14.53125 6.4492188 C 14.24315 6.1680187 13.977827 5.8865094 13.742188 5.6621094 C 13.624378 5.5499194 13.516754 5.4518875 13.396484 5.3671875 C 13.363784 5.3440875 13.32058 5.3230813 13.28125 5.3007812 C 13.02121 5.0180212 12.761559 4.7338406 12.505859 4.4316406 C 11.823179 3.6248506 11.161012 2.7975375 10.445312 2.1484375 C 9.7296225 1.4993375 8.9305 1.0039062 8 1.0039062 z M 8 2.0039062 C 8.56944 2.0039062 9.1454375 2.321005 9.7734375 2.890625 C 10.401498 3.460275 11.051841 4.259925 11.744141 5.078125 C 11.865471 5.221505 12.00005 5.3614094 12.125 5.5058594 C 12.0658 5.5555594 12.008884 5.6096156 11.958984 5.6660156 C 11.724694 5.9307856 11.544636 6.2574156 11.378906 6.6347656 C 11.047456 7.3894856 10.781759 8.3448281 10.542969 9.2988281 C 10.304189 10.252838 10.094907 11.203138 9.9042969 11.898438 C 9.8624969 12.050768 9.8286025 12.12608 9.7890625 12.25 C 9.6955625 12.00078 9.6016838 11.753612 9.4960938 11.382812 C 9.2068037 10.367012 8.8926575 8.9850156 8.5859375 7.6035156 C 8.2792275 6.2220156 7.9795875 4.8400156 7.7109375 3.7910156 C 7.5766175 3.2665156 7.452255 2.8284237 7.328125 2.4960938 C 7.287425 2.3873137 7.2406325 2.3016075 7.1953125 2.2109375 C 7.4677125 2.0801175 7.73502 2.0039062 8 2.0039062 z M 6.4355469 2.9960938 C 6.5269469 3.2608637 6.6283975 3.5966556 6.7421875 4.0410156 C 7.0026375 5.0579156 7.301915 6.4355125 7.609375 7.8203125 C 7.916825 9.2052125 8.2329562 10.59515 8.5351562 11.65625 C 8.6862563 12.18683 8.830825 12.632043 8.984375 12.976562 C 9.061175 13.148833 9.1366775 13.295951 9.2421875 13.431641 C 9.2590875 13.453341 9.2903469 13.474947 9.3105469 13.498047 C 8.8577569 13.826467 8.4264 14.003906 8 14.003906 C 7.43055 14.003906 6.8545625 13.686817 6.2265625 13.117188 C 5.5985025 12.547537 4.9481594 11.749941 4.2558594 10.931641 C 4.1929594 10.857341 4.1223838 10.783724 4.0585938 10.708984 C 4.1008937 10.662884 4.1439906 10.617589 4.1816406 10.568359 C 4.4189206 10.257629 4.5950962 9.8791488 4.7539062 9.4492188 C 5.0715363 8.5893087 5.3034444 7.5191969 5.5214844 6.4667969 C 5.7395244 5.4143969 5.9429488 4.3789313 6.1679688 3.6445312 C 6.2573687 3.3527813 6.3500369 3.1624937 6.4355469 2.9960938 z M 4.9960938 4.2070312 C 4.8398937 4.8538712 4.6919387 5.5446719 4.5429688 6.2636719 C 4.3265787 7.3080719 4.0942462 8.3493625 3.8164062 9.1015625 C 3.6789362 9.4737225 3.528285 9.7726381 3.390625 9.9550781 C 3.349125 9.9098781 3.3115312 9.8631794 3.2695312 9.8183594 C 3.1766313 9.5044294 3.0795463 9.1065394 2.9726562 8.6933594 C 2.8583163 8.2514094 2.7384881 7.8082931 2.5800781 7.4394531 C 2.5213781 7.3026531 2.4533337 7.1782437 2.3710938 7.0585938 C 3.0579337 6.4628237 3.6774594 5.7597719 4.2558594 5.0761719 C 4.5096294 4.7762419 4.7526437 4.4912212 4.9960938 4.2070312 z M 12.792969 6.2617188 C 13.231809 6.7243888 13.700598 7.153095 14.205078 7.515625 C 14.418188 7.712325 14.641466 7.9010894 14.884766 8.0683594 C 13.660266 8.7254794 12.651388 9.8571406 11.742188 10.931641 C 11.466627 11.257311 11.202583 11.56892 10.939453 11.875 C 11.120853 11.17952 11.305342 10.375269 11.513672 9.5429688 C 11.747812 8.6075087 12.011242 7.6831094 12.294922 7.0371094 C 12.436762 6.7141494 12.586531 6.4623519 12.707031 6.3261719 C 12.765031 6.2605719 12.771369 6.2726187 12.792969 6.2617188 z M 1.5839844 7.6933594 C 1.6102844 7.7378594 1.6301094 7.7594544 1.6621094 7.8339844 C 1.7358094 8.0055444 1.8102556 8.2919544 1.8847656 8.5527344 C 1.5982856 8.3402244 1.2957219 8.1609663 0.98242188 8.0039062 C 1.1267519 7.9315062 1.2717563 7.8605906 1.4101562 7.7753906 C 1.4688563 7.7455906 1.5251244 7.7258594 1.5839844 7.6933594 z"/>
</svg>

<svg xmlns="http://www.w3.org/2000/svg" width="16" height="16"><defs><style id="current-color-scheme" type="text/css"></style></defs><path d="M8 1.004c-.93 0-1.73.495-2.445 1.144-.716.65-1.378 1.477-2.06 2.284C2.65 5.599.494 7.169 0 7.434v1.07c1.272 0 1.366.792 2.398 1.851.04.118.077.239.127.342.076.154.14.332.424.453l.12.051.08-.01c.113.131.23.251.343.385.683.807 1.347 1.634 2.063 2.283.715.65 1.514 1.145 2.445 1.145.93 0 1.73-.495 2.445-1.145.716-.649 1.378-1.476 2.06-2.283C13.872 9.963 14.272 8.504 16 8.504v-1c-.784 0-.498-.31-1.174-.79-.099-.087-.2-.173-.295-.265-.288-.281-.553-.562-.789-.787a3.06 3.06 0 0 0-.346-.295c-.032-.023-.075-.044-.115-.066a27.95 27.95 0 0 1-.775-.87c-.683-.806-1.345-1.633-2.06-2.283C9.73 1.5 8.93 1.004 8 1.004zm0 1c.57 0 1.145.317 1.773.887.628.57 1.279 1.369 1.971 2.187.121.144.256.283.381.428-.06.05-.116.104-.166.16-.234.265-.414.591-.58.969-.332.754-.597 1.71-.836 2.664-.239.954-.448 1.904-.639 2.6-.042.152-.075.227-.115.351-.093-.25-.187-.496-.293-.867-.29-1.016-.603-2.398-.91-3.78-.307-1.381-.606-2.763-.875-3.812a13.456 13.456 0 0 0-.383-1.295c-.04-.109-.087-.194-.133-.285.273-.13.54-.207.805-.207zm-1.564.992c.09.265.192.6.306 1.045.26 1.017.56 2.395.867 3.78.308 1.384.624 2.774.926 3.835.151.53.296.976.45 1.32.076.173.152.32.257.456.017.021.048.043.069.066-.453.328-.885.506-1.311.506-.57 0-1.145-.317-1.773-.887-.628-.57-1.279-1.367-1.971-2.185-.063-.075-.134-.148-.197-.223.042-.046.085-.091.123-.14.237-.311.413-.69.572-1.12.318-.86.55-1.93.767-2.982.219-1.053.422-2.088.647-2.822a3.66 3.66 0 0 1 .268-.649zm-1.44 1.211a65.417 65.417 0 0 0-.453 2.057c-.216 1.044-.449 2.085-.727 2.838-.137.372-.288.67-.425.853-.042-.045-.08-.092-.121-.137-.093-.314-.19-.711-.297-1.125-.115-.442-.235-.885-.393-1.254a2.183 2.183 0 0 0-.209-.38c.687-.596 1.306-1.3 1.885-1.983.254-.3.497-.585.74-.869zm7.797 2.055c.439.462.908.891 1.412 1.254.213.196.436.385.68.552-1.225.657-2.234 1.79-3.143 2.864-.275.325-.54.637-.803.943.182-.695.366-1.5.575-2.332.234-.935.497-1.86.78-2.506.143-.323.293-.575.413-.71.058-.066.064-.054.086-.065zM1.584 7.693c.026.045.046.066.078.141.074.172.148.458.223.719a6.076 6.076 0 0 0-.903-.55c.145-.071.29-.142.428-.228.059-.03.115-.05.174-.082z" fill="currentColor" color="#5d656b"/></svg>
